usr/share/icons/biglinux-icons-material-dark/symbolic/status/fcitx-quanpin.svg

<?xml version="1.0" encoding="UTF-8"?>
<svg xmlns="http://www.w3.org/2000/svg" xmlns:xlink="http://www.w3.org/1999/xlink" xmlns:cc="http://creativecommons.org/ns#" xmlns:dc="http://purl.org/dc/elements/1.1/" xmlns:rdf="http://www.w3.org/1999/02/22-rdf-syntax-ns#" xmlns:inkscape="http://www.inkscape.org/namespaces/inkscape" xmlns:sodipodi="http://sodipodi.sourceforge.net/DTD/sodipodi-0.dtd" width="22" height="22">
    <style type="text/css" id="current-color-scheme">
      .ColorScheme-Text {
        color:#31363b;
      }
      .ColorScheme-Background {
        color:#eff0f1;
      }
      .ColorScheme-Highlight {
        color:#3daee9;
      }
      .ColorScheme-ViewText {
        color:#31363b;
      }
      .ColorScheme-ViewBackground {
        color:#fcfcfc;
      }
      .ColorScheme-ViewHover {
        color:#93cee9;
      }
      .ColorScheme-ViewFocus{
        color:#3daee9;
      }
      .ColorScheme-ButtonText {
        color:#31363b;
      }
      .ColorScheme-ButtonBackground {
        color:#eff0f1;
      }
      .ColorScheme-ButtonHover {
        color:#93cee9;
      }
      .ColorScheme-ButtonFocus{
        color:#3daee9;
      }
      </style>
    <g id="fcitx-quanpin" transform="translate(22,8e-6) translate(-22,-8e-06)">
    <path class="ColorScheme-Text" style="fill:currentColor;fill-opacity:1;stroke:none" d="M 3,3 3,19 19,19 19,3 3,3 Z M 4,4 18,4 18,18 4,18 4,4 Z m 6.509766,0.9023438 C 10.323881,5.8317693 8.9615007,6.9634215 7.5664062,7.7519531 6.1713119,8.5404847 4.8300781,9.0292969 4.8300781,9.0292969 l 0.3398438,0.9414062 c 0,0 0.8013817,-0.2932064 1.8300781,-0.7949219 L 7,10 l 3.5,0 0,2 -2.5,0 0,1 2.5,0 0,3 -4.5,0 0,1 10,0 0,-1 -4.5,0 0,-3 2.5,0 0,-1 -2.5,0 0,-2 3.5,0 0,-0.8691406 C 16.015788,9.6469945 16.824219,9.96875 16.824219,9.96875 l 0.351562,-0.9375 c 0,0 -3.856017,-1.4980606 -5.732422,-3.7871094 0.01285,-0.049766 0.03674,-0.095781 0.04687,-0.1464844 L 10.509766,4.9023438 Z M 11,6.2324219 C 12.116196,7.4472455 13.543014,8.3695184 14.734375,9 L 7.3378906,9 C 7.5754268,8.8790495 7.8107881,8.7631109 8.0585938,8.6230469 9.1538606,8.0039829 10.332412,7.2293319 11,6.2324219 Z" id="path4261"/>
    <rect y="0" x="0" height="22" width="22" id="rect4263" style="fill:none;fill-opacity:1;stroke:none;stroke-linejoin:miter"/>
  </g>
</svg>

<svg xmlns="http://www.w3.org/2000/svg" width="22" height="22">
<style id="current-color-scheme" type="text/css">
.ColorScheme-Contrast{color:#31363b}
</style>
<g id="fcitx-quanpin">
<path id="path4261" d="M3 3v16h16V3zm1 1h14v14H4zm6.51.902c-.186.93-1.548 2.061-2.944 2.85C6.171 8.54 4.83 9.029 4.83 9.029l.34.942s.8-.294 1.83-.795V10h3.5v2H8v1h2.5v3H6v1h10v-1h-4.5v-3H14v-1h-2.5v-2H15v-.87c1.016.517 1.824.839 1.824.839l.352-.938s-3.856-1.498-5.733-3.787c.013-.05.037-.096.047-.146zm.49 1.33C12.116 7.447 13.543 8.37 14.734 9H7.338c.237-.121.473-.237.72-.377 1.096-.619 2.274-1.394 2.942-2.39" class="ColorScheme-Contrast" style="fill:currentColor;fill-opacity:1;stroke:none"/>
<path id="rect4263" d="M0 0h22v22H0z" style="fill:none;fill-opacity:1;stroke:none;stroke-linejoin:miter"/>
</g>
</svg>
